packages/icons/general/Copy.svg

<svg width="16" height="17" viewBox="0 0 16 17" fill="none" xmlns="http://www.w3.org/2000/svg">
<path fill-rule="evenodd" clip-rule="evenodd" d="M7.73601 12.9228C6.83794 12.9228 6.0552 12.6552 5.49221 12.1292C4.92562 11.5998 4.63352 10.8567 4.63352 10.0121L4.63352 5.26676C4.63352 4.42608 4.9235 3.68623 5.4855 3.15765C6.04398 2.63237 6.82068 2.36263 7.71195 2.35766L7.71492 2.35766L12.0977 2.35611C12.9958 2.35611 13.7786 2.62366 14.3415 3.14973C14.908 3.67913 15.1999 4.42225 15.1999 5.26676L15.1999 10.0121C15.1999 10.8527 14.9101 11.5925 14.3482 12.121C13.7898 12.6462 13.0132 12.9157 12.122 12.9207L12.119 12.9207L7.73601 12.9228C7.73598 12.9228 7.73626 12.9228 7.73601 12.3894L7.73601 12.9228ZM7.73601 11.8561C7.04716 11.8561 6.54524 11.6533 6.22042 11.3498C5.89917 11.0497 5.70019 10.6041 5.70019 10.0121L5.70019 5.26676C5.70019 4.67806 5.89758 4.23441 6.2163 3.93464C6.53831 3.63177 7.03521 3.42838 7.71656 3.42432C7.71701 3.42432 7.71745 3.42432 7.71789 3.42432L12.0973 3.42278C12.0974 3.42278 12.098 3.42278 12.0981 3.42278C12.7869 3.4228 13.2885 3.6256 13.6132 3.92902C13.9343 4.22912 14.1332 4.67466 14.1332 5.26676L14.1332 10.0121C14.1332 10.6009 13.9359 11.0444 13.6174 11.344C13.2955 11.6467 12.7988 11.85 12.1174 11.854L7.73601 11.8561Z" fill="currentColor"/>
<path fill-rule="evenodd" clip-rule="evenodd" d="M5.41036 14.9996C4.51229 14.9996 3.72955 14.7321 3.16656 14.206C2.59997 13.6767 2.30787 12.9336 2.30787 12.0889L2.30787 7.34359C2.30787 6.2596 2.79134 5.35747 3.67627 4.85468C3.93237 4.70917 4.25794 4.79882 4.40345 5.05492C4.54896 5.31102 4.45931 5.63659 4.20321 5.7821C3.68911 6.0742 3.37454 6.59852 3.37454 7.34359L3.37454 12.0889C3.37454 12.681 3.57353 13.1265 3.89477 13.4266C4.21959 13.7301 4.72139 13.9329 5.41024 13.9329L9.79171 13.9309C10.555 13.9263 11.0869 13.6726 11.4038 13.3035C11.5957 13.0801 11.9325 13.0545 12.1559 13.2464C12.3794 13.4383 12.405 13.775 12.2131 13.9985C11.6515 14.6524 10.7963 14.992 9.79635 14.9975L9.79338 14.9975L5.41036 14.9996C5.41033 14.9996 5.41061 14.9996 5.41036 14.4663L5.41036 14.9996Z" fill="currentColor"/>
</svg>

<svg xmlns="http://www.w3.org/2000/svg" fill="none" viewBox="0 0 16 17">
    <path fill="currentColor" fill-rule="evenodd" d="M7.736 12.923c-.898 0-1.68-.268-2.244-.794-.566-.53-.858-1.272-.858-2.117V5.267c0-.84.29-1.58.851-2.11.559-.525 1.336-.794 2.227-.8h4.386c.898 0 1.68.267 2.243.793.567.53.859 1.272.859 2.117v4.745c0 .84-.29 1.58-.852 2.109-.558.525-1.335.795-2.226.8h-.003l-4.383.002v-.534.534Zm0-1.067c-.689 0-1.19-.203-1.516-.506-.32-.3-.52-.746-.52-1.338V5.267c0-.589.198-1.033.516-1.332.322-.303.82-.507 1.5-.51h.002l4.38-.002c.689 0 1.19.203 1.515.506.321.3.52.746.52 1.338v4.745c0 .589-.197 1.032-.516 1.332-.322.303-.818.506-1.5.51l-4.381.002Z" clip-rule="evenodd"/>
    <path fill="currentColor" fill-rule="evenodd" d="M5.41 15c-.898 0-1.68-.268-2.243-.794-.567-.53-.86-1.272-.86-2.117V7.344c0-1.084.484-1.987 1.37-2.49a.533.533 0 0 1 .526.928c-.514.292-.828.817-.828 1.562v4.745c0 .592.199 1.037.52 1.338.325.303.826.506 1.515.506l4.382-.002c.763-.005 1.295-.258 1.612-.627a.533.533 0 0 1 .81.694c-.563.654-1.418.994-2.418 1h-.003L5.41 15v-.534V15Z" clip-rule="evenodd"/>
</svg>
